assets/awsmanagementtools/original.svg

<svg height="74" viewBox="0 0 74 74" width="74" xmlns="http://www.w3.org/2000/svg"><g fill="none" fill-rule="evenodd"><path d="m5 5h64v64h-64z" fill="#e7157b"/><path d="m1 1h72v72h-72z" stroke="#879196" stroke-width="2"/><path d="m22 28h-17v-2h17v-2h2v2h4v2h-4v2h-2zm-12-8h-5v-2h5v-2h2v2h16v2h-16v2h-2zm12-15h10v-3h-10zm18.842-3h-6.842v-1a1 1 0 0 0 -1-1h-12a1 1 0 0 0 -1 1v1h-6.842a3.16 3.16 0 0 0 -3.158 3.158v3.842h2v-3.842c0-.638.52-1.158 1.158-1.158h6.842v2a1 1 0 0 0 1 1h12a1 1 0 0 0 1-1v-2h6.842c.638 0 1.158.52 1.158 1.158v35.684a1.16 1.16 0 0 1 -1.158 1.158h-26.684a1.16 1.16 0 0 1 -1.158-1.158v-2.842h-2v2.842a3.16 3.16 0 0 0 3.158 3.158h26.684a3.16 3.16 0 0 0 3.158-3.158v-35.684a3.16 3.16 0 0 0 -3.158-3.158m-38.842 32h29v-21h-29zm31 1v-23a1 1 0 0 0 -1-1h-31a1 1 0 0 0 -1 1v23a1 1 0 0 0 1 1h31a1 1 0 0 0 1-1" fill="#fff" transform="translate(15 15)"/></g></svg>

<svg xmlns="http://www.w3.org/2000/svg" width="74" height="74" viewBox="0 0 74 74"><title>Icon-Architecture-Category/48/Management-Governance_48</title><g id="Icon-Architecture-Category/48/Management-Governance_48" fill="none" fill-rule="evenodd" stroke="none" stroke-width="1"><path id="Rectangle" fill="#e7157b" d="M5 5h64v64H5z"/><path id="#879196-Border-Copy-15" stroke="#879196" stroke-width="2" d="M1 1h72v72H1z"/><g id="Icon-Category/48/Management-Governance_48" fill="#fff" transform="translate(15 15)"><path id="Management-Governance_Category-Icon_48_Squid" d="M22 28H5v-2h17v-2h2v2h4v2h-4v2h-2zm-12-8H5v-2h5v-2h2v2h16v2H12v2h-2zM22 5h10V2H22zm18.842-3H34V1a1 1 0 0 0-1-1H21a1 1 0 0 0-1 1v1h-6.842A3.16 3.16 0 0 0 10 5.158V9h2V5.158C12 4.52 12.52 4 13.158 4H20v2a1 1 0 0 0 1 1h12a1 1 0 0 0 1-1V4h6.842C41.48 4 42 4.52 42 5.158v35.684A1.16 1.16 0 0 1 40.842 42H14.158A1.16 1.16 0 0 1 13 40.842V38h-2v2.842A3.16 3.16 0 0 0 14.158 44h26.684A3.16 3.16 0 0 0 44 40.842V5.158A3.16 3.16 0 0 0 40.842 2M2 34h29V13H2zm31 1V12a1 1 0 0 0-1-1H1a1 1 0 0 0-1 1v23a1 1 0 0 0 1 1h31a1 1 0 0 0 1-1"/></g></g></svg>
